resources/images/param_concentric.svg

<svg width="24" height="24" viewBox="0 0 24 24" fill="none" xmlns="http://www.w3.org/2000/svg">
<path d="M19.5 22.4584C19.4972 22.1238 19.4721 21.7897 19.425 21.4584H19.432C19.42 21.3744 19.402 21.2914 19.388 21.2074C19.374 21.1234 19.361 21.0434 19.344 20.9624C19.311 20.7994 19.27 20.6384 19.226 20.4774C19.211 20.4254 19.201 20.3774 19.185 20.3214C19.123 20.1134 19.05 19.9074 18.969 19.7044C18.943 19.6404 18.913 19.5784 18.886 19.5154C18.824 19.3734 18.76 19.2314 18.686 19.0924C18.649 19.0184 18.608 18.9454 18.567 18.8724C18.497 18.7444 18.422 18.6194 18.344 18.4954C18.298 18.4234 18.253 18.3524 18.204 18.2824C18.116 18.1534 18.022 18.0284 17.925 17.9044C17.879 17.8454 17.836 17.7854 17.788 17.7284C17.64 17.5504 17.488 17.3754 17.316 17.2084C17.144 17.0414 16.983 16.8964 16.81 16.7534C16.763 16.7144 16.716 16.6764 16.668 16.6394C16.518 16.5208 16.3644 16.4081 16.207 16.3014L16.121 16.2424C15.938 16.1234 15.751 16.0154 15.561 15.9134C15.51 15.8864 15.461 15.8614 15.407 15.8364C15.252 15.7574 15.094 15.6854 14.935 15.6184C14.888 15.5994 14.842 15.5774 14.794 15.5594C14.594 15.4814 14.399 15.4134 14.194 15.3524L14.046 15.3124C13.954 15.2874 13.863 15.2594 13.771 15.2374C13.3933 14.5907 12.9324 13.9963 12.4 13.4694C11.5165 12.606 10.4599 11.9397 9.30005 11.5144C9.25321 11.4974 9.20222 11.4954 9.15419 11.5087C9.10617 11.5221 9.06353 11.5501 9.03223 11.5889C9.00093 11.6277 8.98254 11.6753 8.97964 11.7251C8.97674 11.7748 8.98947 11.8243 9.01605 11.8664C9.69806 12.9007 9.97701 14.1492 9.80005 15.3754C9.62005 15.4314 9.44205 15.4964 9.26505 15.5664L9.12205 15.6254C8.92205 15.7064 8.73505 15.7934 8.54705 15.8924C8.52505 15.9034 8.50405 15.9164 8.48205 15.9284C8.30605 16.0224 8.13205 16.1284 7.96205 16.2354C7.92505 16.2584 7.88805 16.2814 7.85205 16.3054C7.67305 16.4244 7.49905 16.5534 7.32805 16.6894L7.22305 16.7764C7.04805 16.9224 6.87605 17.0764 6.71105 17.2374C6.54605 17.3984 6.39605 17.5704 6.25105 17.7434C6.20805 17.7954 6.16605 17.8484 6.12505 17.9004C6.01971 18.0338 5.91971 18.1671 5.82505 18.3004C5.78905 18.3524 5.75105 18.4004 5.71705 18.4564C5.60405 18.6304 5.49605 18.8064 5.39805 18.9864C4.81448 20.0648 4.50539 21.2703 4.49805 22.4964" stroke="#FF7C3F" stroke-linecap="round" stroke-linejoin="round"/>
<path d="M12.5198 19.0269C12.6738 18.5409 13.6848 18.3579 14.7788 18.6189C15.8728 18.8799 16.6338 19.4859 16.4788 19.9729C16.3238 20.4599 15.3138 20.6419 14.2198 20.3809C13.1258 20.1199 12.3658 19.5139 12.5198 19.0269Z" stroke="#FF7C3F" stroke-linecap="round" stroke-linejoin="round"/>
<path d="M16.117 1.5C17.8357 2.40824 19.416 3.55716 20.81 4.912C20.952 5.052 21.0927 5.19467 21.232 5.34C21.707 5.594 22.108 5.832 22.5 6.08M22.5 9.78L22.479 9.763L22.238 9.569C21.901 9.304 21.559 9.054 21.294 8.877L21.034 8.701C20.625 8.435 20.206 8.19 19.725 7.936L19.393 7.766C19.171 7.521 18.941 7.282 18.706 7.051C16.8784 5.26503 14.6887 3.89212 12.285 3.025L12.2 3C11.239 2.67001 10.2301 2.50107 9.214 2.5C7.68014 2.50226 6.17114 2.88762 4.82402 3.62109C3.47689 4.35455 2.3343 5.41289 1.5 6.7M22.406 21.073C22.392 20.959 22.372 20.844 22.34 20.673C22.323 20.573 22.305 20.465 22.284 20.364C22.237 20.132 22.184 19.901 22.125 19.706L22.06 19.463C21.972 19.163 21.869 18.879 21.76 18.605C21.724 18.514 21.685 18.425 21.641 18.328C21.554 18.128 21.461 17.928 21.357 17.723L21.193 17.423C21.093 17.241 20.985 17.06 20.863 16.868C20.8 16.768 20.737 16.668 20.685 16.597C20.559 16.412 20.424 16.231 20.265 16.028C20.211 15.957 20.156 15.886 20.098 15.816C19.889 15.565 19.67 15.316 19.434 15.085C19.198 14.854 18.969 14.649 18.718 14.441L18.526 14.287C18.316 14.122 18.104 13.965 17.907 13.834L17.763 13.734C17.504 13.566 17.238 13.412 16.984 13.277L16.758 13.161C16.537 13.049 16.313 12.947 16.094 12.861L15.894 12.78C15.821 12.751 15.748 12.722 15.675 12.696C14.3267 10.8708 12.4724 9.48135 10.342 8.7L9.753 8.5H9.217C8.63354 8.50014 8.06096 8.65792 7.55979 8.95667C7.05862 9.25542 6.64748 9.68404 6.36985 10.1972C6.09221 10.7104 5.95839 11.289 5.98253 11.872C6.00667 12.4549 6.18788 13.0205 6.507 13.509L6.551 13.579C6.474 13.627 6.19 13.809 6.19 13.809C5.939 13.976 5.696 14.154 5.458 14.344L5.3 14.474C5.059 14.674 4.823 14.885 4.593 15.114C4.363 15.343 4.155 15.575 3.942 15.828L3.782 16.028C3.633 16.215 3.491 16.407 3.319 16.656L3.206 16.821C3.048 17.063 2.898 17.311 2.765 17.562C2.16941 18.6662 1.77654 19.8682 1.605 21.111M22.405 13.896C22.136 13.572 21.854 13.259 21.546 12.952C21.254 12.662 20.953 12.394 20.601 12.103L20.38 11.925C20.109 11.712 19.834 11.511 19.604 11.356L19.404 11.217C19.068 10.999 18.725 10.799 18.359 10.605L18.114 10.479C17.927 10.385 17.737 10.295 17.551 10.212C17.253 9.85667 16.939 9.51667 16.609 9.192C15.1038 7.71688 13.2995 6.58199 11.318 5.864L11.043 5.77C10.5213 5.59121 9.97353 5.49998 9.422 5.5C7.81989 5.46698 6.26296 6.03207 5.055 7.085C4.30924 7.75738 3.73499 8.59828 3.38014 9.53761C3.02528 10.4769 2.90009 11.4875 3.015 12.485C2.833 12.646 2.654 12.813 2.476 12.985C2.187 13.273 1.917 13.572 1.604 13.946L1.504 14.075" stroke="#949494" stroke-linecap="round" stroke-linejoin="round"/>
<path d="M20.5 1.5H3.5C2.39543 1.5 1.5 2.39543 1.5 3.5V20.5C1.5 21.6046 2.39543 22.5 3.5 22.5H20.5C21.6046 22.5 22.5 21.6046 22.5 20.5V3.5C22.5 2.39543 21.6046 1.5 20.5 1.5Z" stroke="#949494" stroke-linecap="round" stroke-linejoin="round"/>
</svg>

<svg xmlns="http://www.w3.org/2000/svg" width="24" height="24" viewBox="0 0 24 24"><path d="M19.5,22.459a7.562,7.562,0,0,0-.075-1l.007,0c-.012-.084-.03-.167-.044-.251s-.027-.164-.044-.245c-.033-.163-.074-.324-.118-.485-.015-.052-.025-.1-.041-.156-.062-.208-.135-.414-.216-.617-.026-.064-.056-.126-.083-.189-.062-.142-.126-.284-.2-.423-.037-.074-.078-.147-.119-.22-.07-.128-.145-.253-.223-.377-.046-.072-.091-.143-.14-.213-.088-.129-.182-.254-.279-.378-.046-.059-.089-.119-.137-.176-.148-.178-.3-.353-.472-.52s-.333-.312-.506-.455c-.047-.039-.094-.077-.142-.114q-.225-.178-.461-.338l-.086-.059c-.183-.119-.37-.227-.56-.329-.051-.027-.1-.052-.154-.077-.155-.079-.313-.151-.472-.218-.047-.019-.093-.041-.141-.059-.2-.078-.395-.146-.6-.207l-.148-.04c-.092-.025-.183-.053-.275-.075A8.562,8.562,0,0,0,12.4,13.47a8.741,8.741,0,0,0-3.1-1.955.239.239,0,0,0-.284.352A5.061,5.061,0,0,1,9.8,15.376c-.18.056-.358.121-.535.191l-.143.059c-.2.081-.387.168-.575.267-.022.011-.043.024-.065.036-.176.094-.35.2-.52.307-.037.023-.074.046-.11.07-.179.119-.353.248-.524.384l-.105.087c-.175.146-.347.3-.512.461s-.315.333-.46.506c-.043.052-.085.105-.126.157q-.158.2-.3.4c-.036.052-.074.1-.108.156-.113.174-.221.35-.319.53h0a7.469,7.469,0,0,0-.9,3.51" style="fill:none;stroke:#009688;stroke-linecap:round;stroke-linejoin:round"/><path d="M12.52,19.027c.154-.486,1.165-.669,2.259-.408s1.855.867,1.7,1.354-1.165.669-2.259.408S12.366,19.514,12.52,19.027Z" style="fill:none;stroke:#009688;stroke-linecap:round;stroke-linejoin:round"/><path d="M16.117,1.5A20.427,20.427,0,0,1,20.81,4.912q.213.21.422.428c.475.254.876.492,1.268.74m0,3.7-.021-.017-.241-.194c-.337-.265-.679-.515-.944-.692l-.26-.176c-.409-.266-.828-.511-1.309-.765l-.332-.17c-.222-.245-.452-.484-.687-.715a17.857,17.857,0,0,0-6.421-4.026L12.2,3a9.224,9.224,0,0,0-2.986-.5h0A9.209,9.209,0,0,0,1.5,6.7M22.406,21.073c-.014-.114-.034-.229-.066-.4-.017-.1-.035-.208-.056-.309-.047-.232-.1-.463-.159-.658l-.065-.243c-.088-.3-.191-.584-.3-.858-.036-.091-.075-.18-.119-.277-.087-.2-.18-.4-.284-.605l-.164-.3c-.1-.182-.208-.363-.33-.555-.063-.1-.126-.2-.178-.271-.126-.185-.261-.366-.42-.569-.054-.071-.109-.142-.167-.212-.209-.251-.428-.5-.664-.731s-.465-.436-.716-.644l-.192-.154c-.21-.165-.422-.322-.619-.453l-.144-.1c-.259-.168-.525-.322-.779-.457l-.226-.116c-.221-.112-.445-.214-.664-.3l-.2-.081c-.073-.029-.146-.058-.219-.084A11.593,11.593,0,0,0,10.342,8.7l-.589-.2H9.217a3.238,3.238,0,0,0-2.71,5.009l.044.07c-.077.048-.361.23-.361.23-.251.167-.494.345-.732.535l-.158.13c-.241.2-.477.411-.707.64s-.438.461-.651.714l-.16.2c-.149.187-.291.379-.463.628l-.113.165c-.158.242-.308.49-.441.741a10.5,10.5,0,0,0-1.16,3.549m20.8-7.215c-.269-.324-.551-.637-.859-.944-.292-.29-.593-.558-.945-.849l-.221-.178c-.271-.213-.546-.414-.776-.569l-.2-.139c-.336-.218-.679-.418-1.045-.612l-.245-.126c-.187-.094-.377-.184-.563-.267q-.447-.533-.942-1.02a14.728,14.728,0,0,0-5.291-3.328l-.275-.094A5,5,0,0,0,9.422,5.5h0A6.444,6.444,0,0,0,5.055,7.085a6.3,6.3,0,0,0-2.04,5.4c-.182.161-.361.328-.539.5-.289.288-.559.587-.872.961l-.1.129" style="fill:none;stroke:#949494;stroke-linecap:round;stroke-linejoin:round"/><rect x="1.5" y="1.5" width="21" height="21" rx="2" style="fill:none;stroke:#949494;stroke-linecap:round;stroke-linejoin:round"/></svg>
